X: 0871
M: 6/8
L: 1/8
K: Bb
g |\
f>ed Td>cB | B<GG G3 | F<BB B>cd | Td<cc c2g |\
f>ed Td>cB | B<GG G3 | F<BB ceA | B2B B2 :|
|: F |\

